X:54
T:Reel 54
M:4/4
K:Gmaj
L:1/8
dc|BABG DEFG|AFDE FDDc|BABc defd|cABG A2dc|BABc dBGB|AGBG A2Ac|BGBc dBcA| (3EFG AF G2|Bc|dggf d2ed|cAAc f2fg|agfe defd|cAAB cAdc|dggf g2fg|agab afdc|cABc dBeg|fdcA G2|
